flaticon/sewing/fabric.svg

<svg xmlns="http://www.w3.org/2000/svg" width="32" height="32" viewBox="0 0 24 24">
    <path d="M 23.601562 8.398438 C 19.199219 8.398438 15.601562 4.800781 15.601562 0.398438 C 15.601562 0.160156 15.441406 0 15.199219 0 L 8.800781 0 C 8.558594 0 8.398438 0.160156 8.398438 0.398438 C 8.398438 4.800781 4.800781 8.398438 0.398438 8.398438 C 0.160156 8.398438 0 8.558594 0 8.800781 L 0 23.601562 C 0 23.839844 0.160156 24 0.398438 24 L 23.601562 24 C 23.839844 24 24 23.839844 24 23.601562 L 24 8.800781 C 24 8.558594 23.839844 8.398438 23.601562 8.398438 Z M 23.199219 23.199219 L 0.800781 23.199219 L 0.800781 9.199219 C 5.359375 9 9 5.320312 9.199219 0.800781 L 14.800781 0.800781 C 15 5.359375 18.679688 9 23.199219 9.199219 Z M 23.199219 23.199219"/>
    <path d="M3.800781 21.199219L2.800781 21.199219 2.800781 20.199219C2.800781 19.960938 2.640625 19.800781 2.398438 19.800781 2.160156 19.800781 2 19.960938 2 20.199219L2 21.601562C2 21.839844 2.160156 22 2.398438 22L3.800781 22C4.039062 22 4.199219 21.839844 4.199219 21.601562 4.199219 21.359375 4.039062 21.199219 3.800781 21.199219zM2.398438 18C2.640625 18 2.800781 17.839844 2.800781 17.601562L2.800781 14.601562C2.800781 14.359375 2.640625 14.199219 2.398438 14.199219 2.160156 14.199219 2 14.359375 2 14.601562L2 17.601562C2 17.839844 2.160156 18 2.398438 18zM2.398438 12.398438C2.640625 12.398438 2.800781 12.238281 2.839844 12L2.839844 10.960938C3.199219 10.878906 3.558594 10.761719 3.921875 10.640625 4.121094 10.558594 4.238281 10.320312 4.160156 10.121094 4.078125 9.921875 3.839844 9.800781 3.640625 9.878906 3.199219 10 2.761719 10.121094 2.320312 10.199219 2.121094 10.238281 2 10.398438 2 10.601562L2 12C2 12.238281 2.160156 12.398438 2.398438 12.398438zM9.078125 6.121094C8.878906 5.960938 8.640625 6.039062 8.519531 6.199219 7.878906 7.121094 7.078125 7.921875 6.160156 8.558594 6 8.679688 5.960938 8.960938 6.078125 9.121094 6.160156 9.238281 6.28125 9.28125 6.398438 9.28125 6.480469 9.28125 6.558594 9.238281 6.601562 9.238281 7.601562 8.519531 8.441406 7.679688 9.160156 6.679688 9.320312 6.480469 9.28125 6.238281 9.078125 6.121094zM13.800781 2.320312C13.761719 2.121094 13.601562 2 13.398438 2L10.601562 2C10.398438 2 10.238281 2.121094 10.199219 2.320312 10.121094 2.761719 10 3.199219 9.878906 3.601562 9.800781 3.839844 9.921875 4.039062 10.121094 4.121094 10.359375 4.199219 10.558594 4.078125 10.640625 3.878906 10.761719 3.519531 10.878906 3.160156 10.960938 2.800781L13.078125 2.800781C13.160156 3.160156 13.28125 3.519531 13.398438 3.878906 13.441406 4.039062 13.601562 4.160156 13.761719 4.160156 13.800781 4.160156 13.839844 4.160156 13.878906 4.160156 14.078125 4.078125 14.199219 3.839844 14.121094 3.640625 14 3.199219 13.878906 2.761719 13.800781 2.320312zM15.441406 6.160156C15.320312 6 15.078125 5.960938 14.878906 6.078125 14.71875 6.199219 14.679688 6.441406 14.800781 6.640625 15.519531 7.640625 16.359375 8.480469 17.359375 9.199219 17.441406 9.238281 17.519531 9.28125 17.601562 9.28125 17.71875 9.28125 17.839844 9.238281 17.878906 9.078125 18.039062 8.878906 17.960938 8.640625 17.800781 8.519531 16.878906 7.878906 16.078125 7.078125 15.441406 6.160156zM20.121094 10.601562C20.480469 10.71875 20.839844 10.839844 21.199219 10.921875L21.199219 12C21.199219 12.238281 21.359375 12.398438 21.601562 12.398438 21.839844 12.398438 22 12.238281 22 12L22 10.601562C22 10.398438 21.878906 10.238281 21.679688 10.199219 21.28125 10.121094 20.839844 10 20.398438 9.839844 20.160156 9.761719 19.960938 9.878906 19.878906 10.078125 19.800781 10.320312 19.921875 10.519531 20.121094 10.601562zM21.601562 14.199219C21.359375 14.199219 21.199219 14.359375 21.199219 14.601562L21.199219 17.601562C21.199219 17.839844 21.359375 18 21.601562 18 21.839844 18 22 17.839844 22 17.601562L22 14.601562C22 14.359375 21.839844 14.199219 21.601562 14.199219zM20.199219 22L21.601562 22C21.839844 22 22 21.839844 22 21.601562L22 20.199219C22 19.960938 21.839844 19.800781 21.601562 19.800781 21.359375 19.800781 21.199219 19.960938 21.199219 20.199219L21.199219 21.199219 20.199219 21.199219C19.960938 21.199219 19.800781 21.359375 19.800781 21.601562 19.800781 21.839844 19.960938 22 20.199219 22zM15.039062 21.601562C15.039062 21.839844 15.199219 22 15.441406 22L18 22C18.238281 22 18.398438 21.839844 18.398438 21.601562 18.398438 21.359375 18.238281 21.199219 18 21.199219L15.441406 21.199219C15.199219 21.199219 15.039062 21.359375 15.039062 21.601562zM13.28125 21.199219L10.71875 21.199219C10.480469 21.199219 10.320312 21.359375 10.320312 21.601562 10.320312 21.839844 10.480469 22 10.71875 22L13.28125 22C13.480469 22 13.679688 21.839844 13.679688 21.601562 13.679688 21.359375 13.519531 21.199219 13.28125 21.199219zM8.558594 21.199219L6 21.199219C5.761719 21.199219 5.601562 21.359375 5.601562 21.601562 5.601562 21.839844 5.761719 22 6 22L8.519531 22C8.761719 22 8.960938 21.839844 8.960938 21.601562 8.960938 21.359375 8.800781 21.199219 8.558594 21.199219zM8.558594 21.199219"/>
</svg>

<svg xmlns="http://www.w3.org/2000/svg" width="32" height="32" viewBox="0 0 24 24">
    <path d="M23.602 8.398c-4.403 0-8-3.597-8-8 0-.238-.16-.398-.403-.398H8.801c-.242 0-.403.16-.403.398 0 4.403-3.597 8-8 8-.238 0-.398.16-.398.403v14.8c0 .239.16.399.398.399h23.204c.238 0 .398-.16.398-.398V8.8c0-.242-.16-.403-.398-.403zM23.199 23.2H.801v-14C5.359 9 9 5.32 9.199.801h5.602C15 5.359 18.68 9 23.199 9.199zm0 0"/>
    <path d="M3.8 21.2h-1v-1c0-.24-.16-.4-.402-.4-.238 0-.398.16-.398.4v1.402c0 .238.16.398.398.398h1.403c.238 0 .398-.16.398-.398 0-.243-.16-.403-.398-.403zm0 0M2.398 18c.243 0 .403-.16.403-.398v-3c0-.243-.16-.403-.403-.403-.238 0-.398.16-.398.403v3c0 .238.16.398.398.398zm0 0M2.398 12.398c.243 0 .403-.16.442-.398v-1.04c.36-.081.719-.198 1.082-.32.2-.081.316-.32.238-.519-.082-.2-.32-.32-.52-.242-.44.121-.878.242-1.32.32-.199.04-.32.2-.32.403V12c0 .238.16.398.398.398zm0 0M9.078 6.121c-.2-.16-.437-.082-.558.078a9.405 9.405 0 0 1-2.36 2.36c-.16.12-.2.402-.082.562.082.117.203.16.32.16.082 0 .16-.043.204-.043 1-.718 1.84-1.558 2.558-2.558.16-.2.121-.442-.082-.559zm0 0M13.8 2.32a.39.39 0 0 0-.402-.32h-2.796a.39.39 0 0 0-.403.32c-.078.442-.199.88-.32 1.282-.078.238.043.437.242.52.238.077.438-.044.52-.243.12-.36.238-.719.32-1.078h2.117c.082.36.203.719.32 1.078.043.16.204.281.364.281h.117c.2-.082.32-.32.242-.52-.121-.44-.242-.878-.32-1.32zm0 0M15.441 6.16c-.12-.16-.363-.2-.562-.082-.16.121-.2.363-.078.563.719 1 1.558 1.84 2.558 2.558.082.04.16.082.243.082.117 0 .238-.043.277-.203.16-.2.082-.437-.078-.558a9.405 9.405 0 0 1-2.36-2.36zm0 0M20.121 10.602c.36.117.719.238 1.078.32V12c0 .238.16.398.403.398.238 0 .398-.16.398-.398v-1.398a.39.39 0 0 0-.32-.403c-.399-.078-.84-.199-1.282-.36a.402.402 0 0 0-.52.24.407.407 0 0 0 .243.523zm0 0M21.602 14.2c-.243 0-.403.16-.403.402v3c0 .238.16.398.403.398.238 0 .398-.16.398-.398v-3c0-.243-.16-.403-.398-.403zm0 0M20.2 22h1.402c.238 0 .398-.16.398-.398v-1.403c0-.238-.16-.398-.398-.398-.243 0-.403.16-.403.398v1h-1c-.238 0-.398.16-.398.403 0 .238.16.398.398.398zm0 0M15.04 21.602c0 .238.16.398.401.398H18c.238 0 .398-.16.398-.398 0-.243-.16-.403-.398-.403h-2.559c-.242 0-.402.16-.402.403zm0 0M13.281 21.2H10.72c-.239 0-.399.16-.399.402 0 .238.16.398.399.398h2.562a.4.4 0 0 0 .399-.398c0-.243-.16-.403-.399-.403zm0 0M8.559 21.2H6c-.238 0-.398.16-.398.402 0 .238.16.398.398.398h2.52c.242 0 .44-.16.44-.398 0-.243-.16-.403-.401-.403zm0 0"/>
</svg>
